assets/Nexcent.svg

<svg width="155" height="24" viewBox="0 0 155 24" fill="none" xmlns="http://www.w3.org/2000/svg">
<path d="M18.7863 13.1341L13.3954 22.3669L8.00448 13.1341H18.7863ZM20.2305 12.3088H6.55444L13.3954 24L20.2305 12.3088Z" fill="#263238"/>
<path d="M28.1591 1.65038L33.55 10.8833H22.7681L28.1591 1.65038ZM28.1591 0L21.3181 11.6912H35L28.1591 0Z" fill="#263238"/>
<path d="M0 0L5.7359 10.3409L12.0038 0.259661L0 0Z" fill="#4CAF4F"/>
<path d="M13.3955 0.905762L19.4121 11.1889H7.36728L13.3955 0.905762Z" fill="#4CAF4F"/>
<path d="M20.9615 13.4341L26.9839 24H14.6526L20.7744 13.4341H20.9615Z" fill="#4CAF4F"/>
<path d="M22.2653 12.7935L28.1591 23.1978L34.1347 12.7935H22.2653Z" fill="#4CAF4F"/>
<path d="M60.0327 1.66895V22.0326H56.3139L47.4545 9.21582H47.3054V22.0326H43V1.66895H46.7784L55.5682 14.4758H55.7472V1.66895H60.0327Z" fill="#263238"/>
<path d="M70.4705 22.3309C68.8995 22.3309 67.5472 22.0127 66.4137 21.3763C65.2868 20.7333 64.4184 19.8252 63.8086 18.6519C63.1987 17.472 62.8938 16.0766 62.8938 14.4658C62.8938 12.8948 63.1987 11.516 63.8086 10.3295C64.4184 9.1429 65.2769 8.21819 66.3839 7.55531C67.4975 6.89243 68.8034 6.56099 70.3015 6.56099C71.3091 6.56099 72.247 6.7234 73.1154 7.04821C73.9904 7.36639 74.7527 7.84698 75.4023 8.48997C76.0586 9.13296 76.569 9.94167 76.9336 10.9161C77.2982 11.8839 77.4805 13.0174 77.4805 14.3167V15.48H64.5842V12.855H73.4933C73.4933 12.2452 73.3607 11.7049 73.0955 11.2343C72.8304 10.7636 72.4625 10.3957 71.9918 10.1306C71.5278 9.85881 70.9876 9.72292 70.3711 9.72292C69.7281 9.72292 69.158 9.87207 68.6609 10.1704C68.1703 10.462 67.7859 10.8564 67.5075 11.3536C67.229 11.8441 67.0865 12.391 67.0799 12.9942V15.49C67.0799 16.2457 67.2191 16.8986 67.4975 17.4488C67.7826 17.999 68.1836 18.4232 68.7006 18.7215C69.2177 19.0198 69.8308 19.1689 70.5401 19.1689C71.0108 19.1689 71.4416 19.1027 71.8327 18.9701C72.2238 18.8375 72.5586 18.6386 72.837 18.3735C73.1154 18.1083 73.3275 17.7835 73.4734 17.3991L77.391 17.6576C77.1921 18.5989 76.7844 19.4208 76.168 20.1235C75.5581 20.8195 74.7693 21.3631 73.8015 21.7542C72.8403 22.1386 71.73 22.3309 70.4705 22.3309Z" fill="#263238"/>
<path d="M83.511 6.75985L86.315 12.0993L89.1886 6.75985H93.5337L89.109 14.3962L93.6531 22.0326H89.3278L86.315 16.7528L83.3519 22.0326H78.9769L83.511 14.3962L79.136 6.75985H83.511Z" fill="#263238"/>
<path d="M102.403 22.3309C100.839 22.3309 99.493 21.9994 98.3661 21.3366C97.2459 20.6671 96.3841 19.739 95.7809 18.5525C95.1843 17.3659 94.886 16.0004 94.886 14.4559C94.886 12.8915 95.1876 11.5193 95.7908 10.3394C96.4007 9.15285 97.2657 8.22813 98.386 7.56525C99.5063 6.89574 100.839 6.56099 102.383 6.56099C103.716 6.56099 104.882 6.80294 105.883 7.28684C106.884 7.77074 107.676 8.4502 108.26 9.3252C108.843 10.2002 109.164 11.2277 109.224 12.4076H105.227C105.114 11.6453 104.816 11.0321 104.332 10.5681C103.855 10.0974 103.228 9.86213 102.453 9.86213C101.797 9.86213 101.223 10.0411 100.733 10.3991C100.249 10.7504 99.8709 11.2641 99.5991 11.9403C99.3273 12.6164 99.1914 13.435 99.1914 14.3962C99.1914 15.3707 99.324 16.1992 99.5891 16.882C99.8609 17.5648 100.242 18.0851 100.733 18.4431C101.223 18.801 101.797 18.98 102.453 18.98C102.937 18.98 103.371 18.8806 103.755 18.6817C104.146 18.4829 104.468 18.1945 104.72 17.8167C104.978 17.4322 105.147 16.9715 105.227 16.4346H109.224C109.158 17.6012 108.84 18.6287 108.27 19.517C107.706 20.3986 106.927 21.088 105.933 21.5851C104.939 22.0823 103.762 22.3309 102.403 22.3309Z" fill="#263238"/>
<path d="M118.896 22.3309C117.325 22.3309 115.973 22.0127 114.839 21.3763C113.713 20.7333 112.844 19.8252 112.234 18.6519C111.625 17.472 111.32 16.0766 111.32 14.4658C111.32 12.8948 111.625 11.516 112.234 10.3295C112.844 9.1429 113.703 8.21819 114.81 7.55531C115.923 6.89243 117.229 6.56099 118.727 6.56099C119.735 6.56099 120.673 6.7234 121.541 7.04821C122.416 7.36639 123.179 7.84698 123.828 8.48997C124.484 9.13296 124.995 9.94167 125.359 10.9161C125.724 11.8839 125.906 13.0174 125.906 14.3167V15.48H113.01V12.855H121.919C121.919 12.2452 121.786 11.7049 121.521 11.2343C121.256 10.7636 120.888 10.3957 120.418 10.1306C119.954 9.85881 119.413 9.72292 118.797 9.72292C118.154 9.72292 117.584 9.87207 117.087 10.1704C116.596 10.462 116.212 10.8564 115.933 11.3536C115.655 11.8441 115.512 12.391 115.506 12.9942V15.49C115.506 16.2457 115.645 16.8986 115.923 17.4488C116.208 17.999 116.609 18.4232 117.126 18.7215C117.643 19.0198 118.257 19.1689 118.966 19.1689C119.437 19.1689 119.867 19.1027 120.259 18.9701C120.65 18.8375 120.984 18.6386 121.263 18.3735C121.541 18.1083 121.753 17.7835 121.899 17.3991L125.817 17.6576C125.618 18.5989 125.21 19.4208 124.594 20.1235C123.984 20.8195 123.195 21.3631 122.227 21.7542C121.266 22.1386 120.156 22.3309 118.896 22.3309Z" fill="#263238"/>
<path d="M132.906 13.203V22.0326H128.67V6.75985H132.707V9.45446H132.886C133.224 8.5662 133.791 7.86355 134.587 7.3465C135.382 6.82283 136.347 6.56099 137.48 6.56099C138.541 6.56099 139.465 6.793 140.254 7.25701C141.043 7.72103 141.656 8.38391 142.094 9.24565C142.531 10.1008 142.75 11.1216 142.75 12.3082V22.0326H138.514V13.0638C138.521 12.1292 138.282 11.4 137.798 10.8763C137.314 10.346 136.648 10.0809 135.8 10.0809C135.23 10.0809 134.726 10.2035 134.288 10.4488C133.857 10.694 133.519 11.052 133.274 11.5226C133.036 11.9867 132.913 12.5468 132.906 13.203Z" fill="#263238"/>
<path d="M154.212 6.75985V9.94167H145.015V6.75985H154.212ZM147.103 3.10076H151.338V17.3394C151.338 17.7305 151.398 18.0354 151.517 18.2542C151.637 18.4663 151.802 18.6154 152.015 18.7016C152.233 18.7878 152.485 18.8309 152.77 18.8309C152.969 18.8309 153.168 18.8143 153.367 18.7812C153.566 18.7414 153.718 18.7116 153.824 18.6917L154.49 21.8437C154.278 21.91 153.98 21.9862 153.596 22.0724C153.211 22.1652 152.744 22.2215 152.194 22.2414C151.173 22.2812 150.278 22.1453 149.509 21.8337C148.747 21.5222 148.153 21.0383 147.729 20.382C147.305 19.7258 147.096 18.8972 147.103 17.8962V3.10076Z" fill="#263238"/>
</svg>

<svg xmlns="http://www.w3.org/2000/svg" width="155" height="24" fill="none"><path fill="#263238" d="m18.786 13.134-5.39 9.233-5.392-9.233h10.782Zm1.444-.825H6.554L13.395 24l6.835-11.691ZM28.16 1.65l5.39 9.233H22.768L28.16 1.65Zm0-1.65-6.842 11.691H35L28.16 0Z"/><path fill="#4CAF4F" d="m0 0 5.736 10.34L12.004.26 0 0ZM13.396.906l6.016 10.283H7.367L13.396.906ZM20.962 13.434 26.983 24H14.653l6.121-10.566h.188ZM22.265 12.793l5.894 10.405 5.976-10.405h-11.87Z"/><path fill="#263238" d="M60.033 1.669v20.364h-3.72L47.456 9.216h-.15v12.817H43V1.669h3.778l8.79 12.807h.18V1.669h4.285ZM70.47 22.33c-1.57 0-2.923-.317-4.056-.954a6.537 6.537 0 0 1-2.605-2.724c-.61-1.18-.915-2.575-.915-4.186 0-1.571.305-2.95.915-4.136.61-1.187 1.468-2.112 2.575-2.775 1.114-.663 2.42-.994 3.918-.994 1.007 0 1.945.162 2.813.487a6.242 6.242 0 0 1 2.287 1.442c.657.643 1.167 1.452 1.532 2.426.364.968.547 2.101.547 3.4v1.164H64.584v-2.625h8.91c0-.61-.133-1.15-.398-1.62a2.848 2.848 0 0 0-1.104-1.104c-.464-.272-1.004-.408-1.62-.408-.644 0-1.214.15-1.711.447-.49.292-.875.686-1.154 1.184a3.34 3.34 0 0 0-.427 1.64v2.496c0 .756.14 1.409.418 1.959.285.55.686.974 1.203 1.272.517.299 1.13.448 1.84.448.47 0 .9-.066 1.292-.199a2.684 2.684 0 0 0 1.004-.596c.278-.266.49-.59.636-.975l3.918.259a5.35 5.35 0 0 1-1.223 2.465c-.61.697-1.399 1.24-2.367 1.631-.96.385-2.071.577-3.33.577ZM83.511 6.76l2.804 5.34 2.874-5.34h4.345l-4.425 7.636 4.544 7.637h-4.325l-3.013-5.28-2.963 5.28h-4.375l4.534-7.637-4.375-7.636h4.375ZM102.403 22.33c-1.564 0-2.91-.33-4.037-.993a6.722 6.722 0 0 1-2.585-2.785c-.597-1.186-.895-2.552-.895-4.096 0-1.564.302-2.937.905-4.117a6.722 6.722 0 0 1 2.595-2.774c1.12-.67 2.453-1.004 3.997-1.004 1.333 0 2.499.242 3.5.726s1.793 1.163 2.377 2.038c.583.875.904 1.903.964 3.083h-3.997c-.113-.763-.411-1.376-.895-1.84-.477-.47-1.104-.706-1.879-.706-.656 0-1.23.18-1.72.537-.484.351-.862.865-1.134 1.541-.272.676-.408 1.495-.408 2.456 0 .975.133 1.803.398 2.486.272.683.653 1.203 1.144 1.561.49.358 1.064.537 1.72.537.484 0 .918-.1 1.302-.298.391-.2.713-.487.965-.865.258-.385.427-.846.507-1.382h3.997c-.066 1.166-.384 2.194-.954 3.082-.564.882-1.343 1.571-2.337 2.068-.994.497-2.171.746-3.53.746ZM118.896 22.33c-1.571 0-2.923-.317-4.057-.954a6.544 6.544 0 0 1-2.605-2.724c-.609-1.18-.914-2.575-.914-4.186 0-1.571.305-2.95.914-4.136.61-1.187 1.469-2.112 2.576-2.775 1.113-.663 2.419-.994 3.917-.994 1.008 0 1.946.162 2.814.487a6.237 6.237 0 0 1 2.287 1.442c.656.643 1.167 1.452 1.531 2.426.365.968.547 2.101.547 3.4v1.164H113.01v-2.625h8.909c0-.61-.133-1.15-.398-1.62a2.85 2.85 0 0 0-1.103-1.104c-.464-.272-1.005-.408-1.621-.408-.643 0-1.213.15-1.71.447a3.139 3.139 0 0 0-1.154 1.184 3.339 3.339 0 0 0-.427 1.64v2.496c0 .756.139 1.409.417 1.959.285.55.686.974 1.203 1.272.517.299 1.131.448 1.84.448a4.01 4.01 0 0 0 1.293-.199 2.688 2.688 0 0 0 1.004-.596c.278-.266.49-.59.636-.975l3.918.259a5.355 5.355 0 0 1-1.223 2.465c-.61.697-1.399 1.24-2.367 1.631-.961.385-2.071.577-3.331.577ZM132.906 13.203v8.83h-4.236V6.76h4.037v2.694h.179a4.259 4.259 0 0 1 1.701-2.108c.795-.523 1.76-.785 2.893-.785 1.061 0 1.985.232 2.774.696.789.464 1.402 1.127 1.84 1.989.437.855.656 1.876.656 3.062v9.725h-4.236v-8.97c.007-.934-.232-1.663-.716-2.187-.484-.53-1.15-.795-1.998-.795-.57 0-1.074.123-1.512.368a2.56 2.56 0 0 0-1.014 1.074c-.238.464-.361 1.024-.368 1.68ZM154.212 6.76v3.182h-9.197V6.76h9.197Zm-7.109-3.66h4.235v14.24c0 .39.06.695.179.914.12.212.285.361.498.448.218.086.47.129.755.129.199 0 .398-.017.597-.05l.457-.09.666 3.153c-.212.066-.51.142-.894.228-.385.093-.852.15-1.402.17-1.021.04-1.916-.097-2.685-.408-.762-.312-1.356-.796-1.78-1.452-.424-.656-.633-1.485-.626-2.486V3.101Z"/></svg>
